icons/read-48.svg

<svg width="48" height="48" viewBox="0 0 48 48" fill="none" xmlns="http://www.w3.org/2000/svg">
<path fill-rule="evenodd" clip-rule="evenodd" d="M21.7814 2.53308C23.1577 1.75321 24.8423 1.75322 26.2186 2.53308L45.7186 13.5831C47.1286 14.3821 48 15.8775 48 17.4982V36.5C48 38.9853 45.9853 41 43.5 41H4.5C2.01472 41 0 38.9853 0 36.5V17.4982C0 15.8775 0.87145 14.3821 2.28145 13.5831L21.7814 2.53308ZM24.7395 5.14315C24.2808 4.88319 23.7192 4.88319 23.2605 5.14315L4.62702 15.7021L19.447 24.1706C22.1342 22.1171 25.8658 22.1171 28.553 24.1707L43.373 15.7021L24.7395 5.14315ZM45 18.2276L31.0997 26.1707L44.4267 36.642C44.6101 36.7861 44.7509 36.9644 44.847 37.1607C44.945 36.9614 45 36.7371 45 36.5V18.2276ZM16.9003 26.1707L3 18.2276V36.5C3 36.7371 3.05502 36.9614 3.15298 37.1607C3.24911 36.9644 3.38986 36.7861 3.57327 36.642L16.9003 26.1707ZM41.2994 38H6.70064L21.2198 26.5921C22.8516 25.31 25.1484 25.31 26.7802 26.5921L41.2994 38Z" fill="#24292F"/>
</svg>

<svg xmlns="http://www.w3.org/2000/svg" width="48" height="48" viewBox="0 0 48 48"><path fill-rule="evenodd" d="M21.781 2.533a4.5 4.5 0 014.438 0l19.5 11.05A4.5 4.5 0 0148 17.498V36.5a4.5 4.5 0 01-4.5 4.5h-39A4.5 4.5 0 010 36.5V17.498a4.5 4.5 0 012.281-3.915l19.5-11.05zm2.959 2.61a1.5 1.5 0 00-1.48 0L4.628 15.703l14.82 8.468a7.5 7.5 0 019.106 0l14.82-8.469L24.74 5.143zM45 18.228L31.1 26.17l13.327 10.471c.183.144.324.322.42.519.098-.2.153-.424.153-.661V18.228zM16.9 26.17L3 18.228V36.5c0 .237.055.461.153.66.096-.196.237-.374.42-.518L16.9 26.171zM41.3 38H6.7l14.52-11.408a4.5 4.5 0 015.56 0L41.3 38z"/></svg>
